X: 1833
T: Sûzidil Taksim
C: Tanburî Cemil Bey
O: Turkey
F: http://compmusic.upf.edu/node/140
N: suzidil--taksim--serbest----tanburi_cemil_bey
N: makam= suzidil
N: form= taksim
N: usul= serbest = 0/1
M: 0/1
L: 1/16
K: C ^1/4f ^g ^d 
Q: 1/4=72
%%MIDI tuningsystem comma53
e4 c' b a2 a4 z4  | g4 a2 b4 a g f e2 z2 d e f g a b g f e d1/4 z1/4 e2 d2 e2 f g3 g f e e2 c' b a g f e d e f g a2 g f f f e/ z/ e4 e4 z4 A3 A e4 e4 e4 e4 e4 e4 f4 e4 e g f e d e f g a b g f e d e f g a4 a g f e3 e2 c' b4 b b a2 a g3 g f3 f e3 e d3 d c3 c B c d e f e f c B A4 A3 f e4 e d3 e2 f2 g2 a2 g f e2 e2 b2 a z g2 a2 g2 f3 f/ e3/2 f f f e2 e4 f4 g4 a4 g f3 f e3 e4 z4 z4 z4 A z z A/ z/ e4 e4 e4 e4 e4 e4 e4 e4 e =g3/2 g6 g a2 g g g f f e3  | 
w:   |   | 
d e3/2 d/ c3/2 d c2 z4 z4 z4 A3 A e4 e4 e4 e4 e4 e2 f2 ^f2 =g f g a3 ^g g2 a2 g2 ^1/4f e2 f/ g/ f3 g f g3/2 e2 f/ e3/2 =d2 d/ e3/2 e d c4 z4 c2 =G2 c2 e2 z2 d c4 c2 G2 c2  | 
w:   | 
f2 z2 f e =d4 d2 A2 d2  | g4 g f e4 e2 =d2 e2  | \
w:   |   | 
a2 z2 a3/2 g/ a b c'3/2 b a4 =g4 =f4 e4 d4 c4 B B c d e f d e f g e g f e d d c B c d2 B c B A G A B A c B4 z4 E2 A4 A B4 c/ B/ c/ d/ c/ B3/4 A/ G/ A/ B/ A/ G3/4 z3/4 A8 D A2 A e4 f/ e/ f/ g/ f2 e3 d/ c/ d/ e/ d2 c3 c4 =d e4 a/ g/ a/ _b/ a g3 ^1/4f/ e/ f/ g/ f e3/2 e/ d/ e/ f/ e2 d d c c B B c c d2 e4 ^d2 f e d c B A G A B c B c =d e B c B A G A G F E8 E8 E4 E4 E4 E4 e4 e2 e2 e2 e2 e ^g f e e ^d3 d c3 c B3 B A3 A G3 G F3 F E3 E2 A4 G F F F F E E8 c'3/2 =b/ a2 g a b c' a2 b a a g a2 a4 a4 a4 a4 a4 a4 a4 z2 =g a b b a a a a a g a2 g b a c' b a g2 ^f ^e f g f2 a2 ^g ^1/4f f =e d2 d c d2 z4 z4 z4 d3 d d'3 d' c'3 c' b3 b a3 a g g g f e d2 e f g a a4 g/ f3/2 f f f e e d e2 z4 c/ B/ A2 e4 z4 c/ B/ A2 e4 z4 e3 g2 f e2 e2 e/ d3/2 =d2 e2 d2 c2 d2 c2 d2 e2 d2 e2 f2 e2 =g2 a4 g f4 e4 ^d2 c2 _1/4B3 c d2 =B2 A4 B4 B4 B4 B4 z4 =d3 d d2 e2 z2 e d3 g f3 e2 e/ d3/2 d/ c3/2 c/ B3/2 B/ A3/2 A A A B ^c d2 c B A B G F E z E4 F4 E3 E e4 e4 e4 e4 e4 d =c B A A4 A4 A3 A e4 e4 e f ^g a a g f e e c B A A4 ^A2 c2 d2 c e d2 z2 d3/2 e/ d c B4 A4 G4 F4 E4 B4 =A4 ^d c B A2 A4 G3/2 A/ G2 F F F G6 F E E8 z4 |
w:   | 


